Pods/ProtonCore-UIFoundations/libraries/UIFoundations/Sources/Assets.xcassets/Images/IconSet/ic-folder-filled.imageset/ic-folder-filled.svg

<svg width="24" height="24" viewBox="0 0 24 24" fill="none" xmlns="http://www.w3.org/2000/svg">
<path d="M1.5 6C1.5 4.34315 2.84315 3 4.5 3H8.75C9.39911 3 10.0307 3.21053 10.55 3.6L12.67 5.19C12.7219 5.22895 12.7851 5.25 12.85 5.25H19.5C21.1569 5.25 22.5 6.59315 22.5 8.25V18C22.5 19.6569 21.1569 21 19.5 21H4.5C2.84315 21 1.5 19.6569 1.5 18V6Z" fill="#0C0C14"/>
</svg>

<svg xmlns="http://www.w3.org/2000/svg" width="24" height="24" viewBox="0 0 24 24">
  <g class="ic-folder-filled">
    <path d="M1.5 6a3 3 0 0 1 3-3h4.25a3 3 0 0 1 1.8.6l2.12 1.59a.3.3 0 0 0 .18.06h6.65a3 3 0 0 1 3 3V18a3 3 0 0 1-3 3h-15a3 3 0 0 1-3-3V6Z" class="Icon"/>
  </g>
</svg>
